trunk/public/assets/images/icons/blue/remove/infopage2.svg

<svg width="16" height="16" xmlns="http://www.w3.org/2000/svg" viewBox="0 0 16 16" shape-rendering="geometricPrecision" fill="#24437c"><defs><mask id="a"><rect fill="#fff" width="100%" height="100%"/><path fill="#000" d="M8.986 1.143H17v3.565H8.986z"/></mask></defs><path d="M9.986 2.143H16v1.565H9.986z" fill="#cb1800"/><path d="M1.81 0v16h12.38V0H1.81zm6.22 1.245c.86 0 1.552.695 1.552 1.55s-.692 1.55-1.552 1.55c-.854 0-1.55-.695-1.55-1.55s.695-1.55 1.55-1.55zm3.055 13.548h-6.17V13.26H6.44V7.082H4.92v-1.15h4.64v7.328h1.525v1.533z" mask="url(#a)"/></svg>

<?xml version="1.0"?><!DOCTYPE svg PUBLIC "-//W3C//DTD SVG 1.1//EN" "http://www.w3.org/Graphics/SVG/1.1/DTD/svg11.dtd"><svg width="16px" height="16px" xmlns="http://www.w3.org/2000/svg" viewBox="0 0 16 16" shape-rendering="geometricPrecision" fill="#24437c"><defs><mask id="remove-path"><rect fill="#fff" width="100%" height="100%"/><rect x="8.986" y="1.143" width="8.014" height="3.565" fill="#000"/></mask></defs><g fill="#cb1800"><rect x="9.986" y="2.143" width="6.014" height="1.565"/></g><g mask="url(#remove-path)"><g><g><g><path d="M1.811-0.001v16h12.378v-16H1.811z M8.03,1.245c0.859,0,1.552,0.695,1.552,1.55s-0.692,1.55-1.552,1.55 c-0.854,0-1.549-0.695-1.549-1.55S7.175,1.245,8.03,1.245z M11.085,14.793H4.915V13.26h1.526V7.082H4.919V5.931h4.64v7.329 h1.526V14.793z"/></g></g></g></g></svg>
